assets/icons/flags/CY.svg

<svg xmlns="http://www.w3.org/2000/svg" viewBox="0 0 513 342"><path fill="#FFF" d="M0 0h513v342H0z"/><path fill="#DB7D00" d="M141.7 154.7s.2 67.1 74.7 65.3l4.5 13.9h8.9s-7.4-41.1 60.1-41.5c0 0 0-27.6 27.6-27.6H359s-66-51.8 58.9-118l1.8-13.1s-129.9 71-198.9 57.2c0 0 10.7 42.5-10.8 42.5-10.8 0-9.7-8.1-32.3-8.1-18.7 0-17.3 19.7-26.3 19.5-8.9-.2-18.8-12.3-19.6-10.2-.7 2.1 9.9 20.1 9.9 20.1z"/><g fill="#006651"><path d="M237.2 308.1c6.9-5 13-6.6 22.4-8.3s19.4-4.4 24.6-5.8-17.7 6.6-23.5 8.3c-5.8 1.6-23.5 5.8-23.5 5.8zm37.9-14.7c-1.9-11.9 2.8-24.3 13.5-29.3 2.5 8.6-5.2 23.2-13.5 29.3zm18.2-6.2c-5.8-9.8 4-22.6 11.1-28.8 3.3 6-2.5 23.7-11.1 28.8zm16.9-7.6c-6.2-8.4 1.1-23.2 8.8-29 3.1 8.2.1 23.2-8.8 29zm16.9-10.6c-5.6-8-1.7-20.4 6.3-28.4 5.8 6.6.9 21-6.3 28.4zm13.5-10.7c-4.7-7.5 1.1-25.4 8.6-30.4 3.3 6.6.8 25.4-8.6 30.4zm10.8-2.8c-1.4-10.8 17.4-22.7 25.2-22.4-.9 8.9-8.9 18.6-25.2 22.4zm-10.5 12.2c8.8-9.1 26-9.1 32.1-7.2-1.7 5.3-21.9 16.9-32.1 7.2z"/><path d="M328.7 276.8c12.4-3.3 20.5-6.1 27.9 1.7-5.2 6.6-25.4 4.7-27.9-1.7zm-17.7 8c11.9-6.4 26.3 3 28.5 8.6-13.3 5.5-28.7-7.2-28.5-8.6zm-16.3 9.2c10.8-4.1 23.2 1.4 28.2 7.5-5.8 2.7-21 5.7-28.2-7.5zm-14.9 4.7c12.4-1.4 24.4 8 27 13.4-15.9 1.5-22-3.2-27-13.4zm-4 9.4c-6.9-5-13-6.6-22.4-8.3s-19.4-4.4-24.6-5.8c-5.3-1.4 17.7 6.6 23.5 8.3 5.8 1.6 23.5 5.8 23.5 5.8zm-37.9-14.7c1.9-11.9-2.8-24.3-13.5-29.3-2.5 8.6 5.2 23.2 13.5 29.3zm-18.2-6.2c5.8-9.8-4-22.6-11.1-28.8-3.3 6 2.5 23.7 11.1 28.8zm-16.9-7.6c6.2-8.4-1.1-23.2-8.8-29-3.1 8.2-.1 23.2 8.8 29zM185.9 269c5.6-8 1.7-20.4-6.3-28.4-5.8 6.6-.9 21 6.3 28.4zm-13.5-10.7c4.7-7.5-1.1-25.4-8.6-30.4-3.3 6.6-.8 25.4 8.6 30.4zm-10.8-2.8c1.4-10.8-17.4-22.7-25.2-22.4.9 8.9 8.9 18.6 25.2 22.4zm10.5 12.2c-8.8-9.1-26-9.1-32.1-7.2 1.7 5.3 21.9 16.9 32.1 7.2z"/><path d="M184.3 276.8c-12.4-3.3-20.5-6.1-27.9 1.7 5.2 6.6 25.4 4.7 27.9-1.7zm17.7 8c-11.9-6.4-26.3 3-28.5 8.6 13.3 5.5 28.7-7.2 28.5-8.6zm16.3 9.2c-10.8-4.1-23.2 1.4-28.2 7.5 5.8 2.7 21 5.7 28.2-7.5zm14.9 4.7c-12.4-1.4-24.4 8-27 13.4 15.9 1.5 22-3.2 27-13.4z"/></g></svg>

<svg xmlns="http://www.w3.org/2000/svg" viewBox="0 0 513 342"><path fill="#FFF" d="M0 0h513v342H0z"/><path fill="#DB7D00" d="M141.7 154.7s.2 67.1 74.7 65.3l4.5 13.9h8.9s-7.4-41.1 60.1-41.5c0 0 0-27.6 27.6-27.6H359s-66-51.8 58.9-118l1.8-13.1s-129.9 71-198.9 57.2c0 0 10.7 42.5-10.8 42.5-10.8 0-9.7-8.1-32.3-8.1-18.7 0-17.3 19.7-26.3 19.5-8.9-.2-18.8-12.3-19.6-10.2-.7 2.1 9.9 20.1 9.9 20.1z"/><g fill="#006651"><path d="M237.2 308.1c6.9-5 13-6.6 22.4-8.3s19.4-4.4 24.6-5.8-17.7 6.6-23.5 8.3c-5.8 1.6-23.5 5.8-23.5 5.8zM275.1 293.4c-1.9-11.9 2.8-24.3 13.5-29.3 2.5 8.6-5.2 23.2-13.5 29.3zM293.3 287.2c-5.8-9.8 4-22.6 11.1-28.8 3.3 6-2.5 23.7-11.1 28.8zM310.2 279.6c-6.2-8.4 1.1-23.2 8.8-29 3.1 8.2.1 23.2-8.8 29zM327.1 269c-5.6-8-1.7-20.4 6.3-28.4 5.8 6.6.9 21-6.3 28.4zM340.6 258.3c-4.7-7.5 1.1-25.4 8.6-30.4 3.3 6.6.8 25.4-8.6 30.4zM351.4 255.5c-1.4-10.8 17.4-22.7 25.2-22.4-.9 8.9-8.9 18.6-25.2 22.4zM340.9 267.7c8.8-9.1 26-9.1 32.1-7.2-1.7 5.3-21.9 16.9-32.1 7.2z"/><path d="M328.7 276.8c12.4-3.3 20.5-6.1 27.9 1.7-5.2 6.6-25.4 4.7-27.9-1.7zM311 284.8c11.9-6.4 26.3 3 28.5 8.6-13.3 5.5-28.7-7.2-28.5-8.6zM294.7 294c10.8-4.1 23.2 1.4 28.2 7.5-5.8 2.7-21 5.7-28.2-7.5zM279.8 298.7c12.4-1.4 24.4 8 27 13.4-15.9 1.5-22-3.2-27-13.4zM275.8 308.1c-6.9-5-13-6.6-22.4-8.3-9.4-1.7-19.4-4.4-24.6-5.8-5.3-1.4 17.7 6.6 23.5 8.3 5.8 1.6 23.5 5.8 23.5 5.8zM237.9 293.4c1.9-11.9-2.8-24.3-13.5-29.3-2.5 8.6 5.2 23.2 13.5 29.3zM219.7 287.2c5.8-9.8-4-22.6-11.1-28.8-3.3 6 2.5 23.7 11.1 28.8zM202.8 279.6c6.2-8.4-1.1-23.2-8.8-29-3.1 8.2-.1 23.2 8.8 29zM185.9 269c5.6-8 1.7-20.4-6.3-28.4-5.8 6.6-.9 21 6.3 28.4zM172.4 258.3c4.7-7.5-1.1-25.4-8.6-30.4-3.3 6.6-.8 25.4 8.6 30.4zM161.6 255.5c1.4-10.8-17.4-22.7-25.2-22.4.9 8.9 8.9 18.6 25.2 22.4zM172.1 267.7c-8.8-9.1-26-9.1-32.1-7.2 1.7 5.3 21.9 16.9 32.1 7.2z"/><path d="M184.3 276.8c-12.4-3.3-20.5-6.1-27.9 1.7 5.2 6.6 25.4 4.7 27.9-1.7zM202 284.8c-11.9-6.4-26.3 3-28.5 8.6 13.3 5.5 28.7-7.2 28.5-8.6zM218.3 294c-10.8-4.1-23.2 1.4-28.2 7.5 5.8 2.7 21 5.7 28.2-7.5zM233.2 298.7c-12.4-1.4-24.4 8-27 13.4 15.9 1.5 22-3.2 27-13.4z"/></g></svg>
